assets/icons/icon_invertor.svg

<svg width="30" height="30" viewBox="0 0 30 30" fill="none" xmlns="http://www.w3.org/2000/svg">
<g clip-path="url(#clip0_75_217)">
<mask id="mask0_75_217" style="mask-type:luminance" maskUnits="userSpaceOnUse" x="0" y="0" width="30" height="30">
<path fill-rule="evenodd" clip-rule="evenodd" d="M0.226562 15.0001C0.226562 9.06785 3.72315 3.95238 8.76776 1.6021C8.33689 3.03859 8.10535 4.56093 8.10535 6.13644C8.10535 6.72376 8.13755 7.30389 8.20029 7.875C6.32138 9.66851 5.1508 12.1976 5.1508 15.0001C5.1508 16.7923 5.62952 18.4727 6.46607 19.9204C6.35626 19.9229 6.24614 19.9242 6.13569 19.9242C4.21402 19.9242 2.38603 19.5317 0.72593 18.8228C0.400211 17.6034 0.226562 16.322 0.226562 15.0001ZM1.60125 21.2315C3.95152 26.2762 9.06705 29.7728 14.9993 29.7728C16.3214 29.7728 17.603 29.5991 18.8224 29.2733C19.5313 27.6131 19.9238 25.7852 19.9238 23.8637C19.9238 23.7532 19.9224 23.643 19.9199 23.5331C18.4722 24.3697 16.7916 24.8486 14.9993 24.8486C12.1967 24.8486 9.66761 23.678 7.87421 21.7991C7.30319 21.8617 6.72309 21.8939 6.13569 21.8939C4.56026 21.8939 3.03785 21.6625 1.60125 21.2315ZM21.8935 23.8637C21.8935 23.2764 21.8613 22.6962 21.7986 22.1249C23.6773 20.3315 24.8478 17.8025 24.8478 15.0001C24.8478 13.2079 24.369 11.5274 23.5325 10.0797C23.6423 10.0771 23.7526 10.0758 23.8631 10.0758C25.7845 10.0758 27.6124 10.4683 29.2726 11.1772C29.5984 12.3965 29.772 13.678 29.772 15.0001C29.772 20.9321 26.2756 26.0475 21.2311 28.398C21.662 26.9615 21.8935 25.4392 21.8935 23.8637ZM28.3973 8.76855C26.0469 3.72391 20.9314 0.227356 14.9993 0.227356C13.6772 0.227356 12.3958 0.401014 11.1765 0.726753C10.4676 2.38698 10.075 4.215 10.075 6.13644C10.075 6.24692 10.0763 6.35708 10.0789 6.46691C11.5266 5.63034 13.2071 5.1516 14.9993 5.1516C17.8018 5.1516 20.3309 6.32218 22.1244 8.20108C22.6956 8.13835 23.2758 8.10614 23.8631 8.10614C25.4386 8.10614 26.9609 8.33758 28.3973 8.76855Z" fill="white"/>
</mask>
<g mask="url(#mask0_75_217)">
<path d="M8.76817 1.602L10.6548 2.16798L11.9165 -2.03778L7.93637 -0.183428L8.76817 1.602ZM8.2007 7.87491L9.56068 9.29979L10.2648 8.62763L10.1586 7.65992L8.2007 7.87491ZM6.46648 19.9203L6.51273 21.8894L9.83417 21.8114L8.17194 18.9348L6.46648 19.9203ZM0.726342 18.8227L-1.17662 19.3311L-0.929119 20.2575L-0.0471677 20.6341L0.726342 18.8227ZM1.60167 21.2314L2.16765 19.3447L-2.03809 18.0831L-0.183776 22.0632L1.60167 21.2314ZM18.8228 29.2732L19.3313 31.1762L20.2577 30.9286L20.6343 30.0467L18.8228 29.2732ZM19.9203 23.533L21.8895 23.4867L21.8114 20.1652L18.9348 21.8277L19.9203 23.533ZM7.87462 21.799L9.2994 20.4389L8.62724 19.7347L7.65953 19.841L7.87462 21.799ZM21.799 22.1248L20.4389 20.7L19.7348 21.3723L19.841 22.3399L21.799 22.1248ZM23.5329 10.0796L23.4866 8.11049L20.1651 8.18858L21.8275 11.0651L23.5329 10.0796ZM29.273 11.1771L31.1759 10.6687L30.9284 9.74218L30.0465 9.36557L29.273 11.1771ZM21.2315 28.3979L19.3449 27.8319L18.0833 32.0377L22.0634 30.1832L21.2315 28.3979ZM28.3977 8.76846L27.8317 10.655L32.0375 11.9166L30.1831 7.93656L28.3977 8.76846ZM11.1769 0.726661L10.6685 -1.17629L9.74199 -0.928781L9.36538 -0.0468396L11.1769 0.726661ZM10.0793 6.46682L8.11019 6.51308L8.18819 9.83456L11.0648 8.17223L10.0793 6.46682ZM22.1248 8.20099L20.6999 9.56097L21.3722 10.2652L22.3399 10.1589L22.1248 8.20099ZM7.93637 -0.183428C2.2236 2.47814 -1.74272 8.27387 -1.74272 15H2.19667C2.19667 9.86174 5.22353 5.42644 9.59997 3.38744L7.93637 -0.183428ZM10.0755 6.13634C10.0755 4.75467 10.2783 3.42292 10.6548 2.16798L6.88156 1.03603C6.39616 2.65407 6.13606 4.367 6.13606 6.13634H10.0755ZM10.1586 7.65992C10.1037 7.16001 10.0755 6.65168 10.0755 6.13634H6.13606C6.13606 6.79566 6.17219 7.44758 6.24275 8.09L10.1586 7.65992ZM7.12091 15C7.12091 12.7578 8.05504 10.737 9.56068 9.29979L6.84066 6.45015C4.58858 8.59986 3.18152 11.6372 3.18152 15H7.12091ZM8.17194 18.9348C7.50382 17.7786 7.12091 16.437 7.12091 15H3.18152C3.18152 17.1474 3.75602 19.1665 4.76104 20.9057L8.17194 18.9348ZM6.1361 21.8938C6.26199 21.8938 6.38753 21.8924 6.51273 21.8894L6.42022 17.9511C6.32583 17.9534 6.23111 17.9544 6.1361 17.9544V21.8938ZM-0.0471677 20.6341C1.85303 21.4455 3.94381 21.8938 6.1361 21.8938V17.9544C4.48505 17.9544 2.91985 17.6176 1.49986 17.0112L-0.0471677 20.6341ZM-1.74272 15C-1.74272 16.4951 -1.54624 17.9474 -1.17662 19.3311L2.62931 18.3143C2.34748 17.2593 2.19667 16.1488 2.19667 15H-1.74272ZM-0.183776 22.0632C2.47777 27.776 8.27348 31.7424 14.9997 31.7424V27.803C9.86145 27.803 5.42608 24.7761 3.3871 20.3996L-0.183776 22.0632ZM14.9997 31.7424C16.495 31.7424 17.9474 31.5459 19.3313 31.1762L18.3144 27.3703C17.2593 27.6521 16.1486 27.803 14.9997 27.803V31.7424ZM20.6343 30.0467C21.4457 28.1464 21.8939 26.0557 21.8939 23.8636H17.9545C17.9545 25.5145 17.6177 27.0797 17.0114 28.4997L20.6343 30.0467ZM21.8939 23.8636C21.8939 23.7377 21.8925 23.612 21.8895 23.4867L17.9512 23.5793C17.9534 23.6737 17.9545 23.7686 17.9545 23.8636H21.8939ZM18.9348 21.8277C17.7785 22.4958 16.4369 22.8788 14.9997 22.8788V26.8182C17.1473 26.8182 19.1666 26.2436 20.9058 25.2384L18.9348 21.8277ZM14.9997 22.8788C12.7574 22.8788 10.7366 21.9447 9.2994 20.4389L6.44978 23.159C8.59947 25.4111 11.6369 26.8182 14.9997 26.8182V22.8788ZM7.65953 19.841C7.15981 19.8959 6.65149 19.9241 6.1361 19.9241V23.8635C6.79549 23.8635 7.44729 23.8274 8.08961 23.7569L7.65953 19.841ZM6.1361 19.9241C4.7545 19.9241 3.42269 19.7213 2.16765 19.3447L1.03567 23.118C2.65384 23.6034 4.36683 23.8635 6.1361 23.8635V19.9241ZM19.841 22.3399C19.896 22.8399 19.9242 23.3483 19.9242 23.8636H23.8636C23.8636 23.2043 23.8275 22.5522 23.7569 21.9097L19.841 22.3399ZM22.8785 15C22.8785 17.2421 21.9445 19.2628 20.4389 20.7L23.1591 23.5496C25.4109 21.3999 26.8179 18.3627 26.8179 15H22.8785ZM21.8275 11.0651C22.4956 12.2212 22.8785 13.5629 22.8785 15H26.8179C26.8179 12.8526 26.2433 10.8334 25.2383 9.09415L21.8275 11.0651ZM23.8635 8.10605C23.7376 8.10605 23.6119 8.10753 23.4866 8.11049L23.5792 12.0488C23.6737 12.0465 23.7684 12.0454 23.8635 12.0454V8.10605ZM30.0465 9.36557C28.1461 8.55426 26.0555 8.10605 23.8635 8.10605V12.0454C25.5143 12.0454 27.0795 12.3823 28.4995 12.9885L30.0465 9.36557ZM31.7421 15C31.7421 13.5048 31.5456 12.0524 31.1759 10.6687L27.3701 11.6855C27.6518 12.7405 27.8027 13.8512 27.8027 15H31.7421ZM22.0634 30.1832C27.7759 27.5216 31.7421 21.726 31.7421 15H27.8027C27.8027 20.1381 24.776 24.5733 20.3996 26.6124L22.0634 30.1832ZM19.9242 23.8636C19.9242 25.2453 19.7214 26.577 19.3449 27.8319L23.1182 28.9638C23.6035 27.3459 23.8636 25.6329 23.8636 23.8636H19.9242ZM14.9997 2.19696C20.1379 2.19696 24.5732 5.22379 26.6122 9.60026L30.1831 7.93656C27.5215 2.22385 21.7258 -1.74243 14.9997 -1.74243V2.19696ZM11.6853 2.62962C12.7403 2.34779 13.8509 2.19696 14.9997 2.19696V-1.74243C13.5045 -1.74243 12.0521 -1.54595 10.6685 -1.17629L11.6853 2.62962ZM12.0452 6.13634C12.0452 4.4855 12.382 2.92025 12.9883 1.50017L9.36538 -0.0468396C8.55397 1.85351 8.10576 3.94431 8.10576 6.13634H12.0452ZM12.0485 6.42056C12.0462 6.32615 12.0452 6.23141 12.0452 6.13634H8.10576C8.10576 6.26225 8.10724 6.38783 8.11019 6.51308L12.0485 6.42056ZM14.9997 3.18181C12.8523 3.18181 10.8331 3.75634 9.09386 4.76139L11.0648 8.17223C12.221 7.50411 13.5626 7.1212 14.9997 7.1212V3.18181ZM23.5496 6.84097C21.3999 4.58888 18.3625 3.18181 14.9997 3.18181V7.1212C17.2419 7.1212 19.2627 8.05533 20.6999 9.56097L23.5496 6.84097ZM23.8635 6.13635C23.2042 6.13635 22.5522 6.17249 21.9097 6.24306L22.3399 10.1589C22.8398 10.104 23.3482 10.0757 23.8635 10.0757V6.13635ZM28.9636 6.88178C27.3457 6.39642 25.6328 6.13635 23.8635 6.13635V10.0757C25.2452 10.0757 26.5768 10.2786 27.8317 10.655L28.9636 6.88178Z" fill="white"/>
</g>
</g>
<defs>
<clipPath id="clip0_75_217">
<rect width="30" height="30" fill="white"/>
</clipPath>
</defs>
</svg>

<svg xmlns="http://www.w3.org/2000/svg" width="30" height="30" fill="none" viewBox="0 0 30 30"><g clip-path="url(#a)"><mask id="b" width="30" height="30" x="0" y="0" maskUnits="userSpaceOnUse" style="mask-type:luminance"><path fill="#fff" fill-rule="evenodd" d="M.227 15c0-5.932 3.496-11.048 8.54-13.398A15.918 15.918 0 0 0 8.2 7.875 9.82 9.82 0 0 0 5.15 15c0 1.792.48 3.473 1.316 4.92q-.165.004-.33.004a13.7 13.7 0 0 1-5.41-1.101C.4 17.603.226 16.322.226 15M1.6 21.232c2.35 5.044 7.466 8.54 13.398 8.54 1.322 0 2.604-.173 3.823-.499a13.7 13.7 0 0 0 1.098-5.74A9.8 9.8 0 0 1 15 24.85a9.82 9.82 0 0 1-7.126-3.05 16 16 0 0 1-1.738.095c-1.576 0-3.098-.231-4.535-.662m20.293 2.632q-.001-.882-.095-1.74A9.82 9.82 0 0 0 24.848 15a9.8 9.8 0 0 0-1.315-4.92q.165-.004.33-.004c1.922 0 3.75.392 5.41 1.101.325 1.22.499 2.501.499 3.823 0 5.932-3.496 11.048-8.54 13.398.43-1.436.662-2.959.662-4.534m6.503-15.095C26.047 3.724 20.931.227 15 .227c-1.322 0-2.603.174-3.822.5a13.7 13.7 0 0 0-1.098 5.74 9.8 9.8 0 0 1 4.92-1.315 9.82 9.82 0 0 1 7.125 3.05 15.9 15.9 0 0 1 6.273.567" clip-rule="evenodd"/></mask><g mask="url(#b)"><path fill="#fff" d="m8.768 1.602 1.887.566 1.261-4.206-3.98 1.855zm-.567 6.273L9.56 9.3l.704-.672-.106-.968zM6.466 19.92l.047 1.97 3.321-.079-1.662-2.876zm-5.74-1.097-1.903.508.248.927.882.376zm.876 2.408.566-1.886-4.206-1.262 1.854 3.98zm17.22 8.042.51 1.903.926-.247.376-.882zm1.098-5.74 1.97-.046-.079-3.322-2.876 1.663zM7.875 21.799l1.424-1.36-.672-.704-.967.106zm13.924.326-1.36-1.425-.704.672.106.968zm1.734-12.045-.046-1.97-3.322.079 1.663 2.876zm5.74 1.097 1.903-.508-.248-.927-.881-.376zm-8.041 17.22-1.887-.565-1.262 4.206 3.98-1.855zm7.166-19.629-.566 1.887 4.206 1.262-1.855-3.98zM11.177.727l-.508-1.903-.927.247-.377.882zm-1.098 5.74-1.969.046.078 3.322 2.877-1.663zM22.125 8.2 20.7 9.561l.672.704.968-.106zM7.936-.183C2.224 2.478-1.743 8.274-1.743 15h3.94c0-5.138 3.027-9.574 7.403-11.613zm2.14 6.32c0-1.382.202-2.714.579-3.969L6.882 1.036a17.7 17.7 0 0 0-.746 5.1zm.083 1.523q-.083-.75-.084-1.524H6.137q0 .99.107 1.954zM7.12 15a7.85 7.85 0 0 1 2.44-5.7L6.84 6.45A11.8 11.8 0 0 0 3.18 15zm1.05 3.935A7.83 7.83 0 0 1 7.122 15H3.18c0 2.147.575 4.166 1.58 5.906zm-2.035 2.959q.19 0 .377-.005l-.093-3.938q-.141.003-.284.003zm-6.183-1.26a15.7 15.7 0 0 0 6.183 1.26v-3.94a11.8 11.8 0 0 1-4.636-.943zM-1.743 15c0 1.495.197 2.947.566 4.331l3.806-1.017A12.8 12.8 0 0 1 2.197 15zm1.56 7.063c2.66 5.713 8.456 9.68 15.183 9.68v-3.94c-5.139 0-9.574-3.027-11.613-7.403zM15 31.743c1.495 0 2.947-.197 4.331-.567l-1.017-3.806a12.8 12.8 0 0 1-3.314.433zm5.634-1.696a15.7 15.7 0 0 0 1.26-6.183h-3.94c0 1.65-.336 3.216-.943 4.636zm1.26-6.183q0-.19-.004-.377l-3.939.092.003.285zm-2.96-2.036A7.83 7.83 0 0 1 15 22.878v3.94c2.147 0 4.167-.574 5.906-1.58zM15 22.878a7.85 7.85 0 0 1-5.7-2.44L6.45 23.16a11.8 11.8 0 0 0 8.55 3.66zm-7.34-3.037q-.75.083-1.524.083v3.94a18 18 0 0 0 1.954-.107zm-1.524.083c-1.381 0-2.713-.203-3.968-.58l-1.132 3.774a17.7 17.7 0 0 0 5.1.745zm13.705 2.416q.083.75.083 1.524h3.94q-.001-.99-.107-1.954zM22.878 15a7.85 7.85 0 0 1-2.44 5.7l2.721 2.85A11.8 11.8 0 0 0 26.818 15zm-1.05-3.935A7.83 7.83 0 0 1 22.878 15h3.94c0-2.147-.575-4.167-1.58-5.906zm2.035-2.959q-.188 0-.376.004l.092 3.939q.143-.004.284-.004zm6.184 1.26a15.7 15.7 0 0 0-6.184-1.26v3.94c1.651 0 3.217.336 4.637.943zM31.742 15c0-1.495-.196-2.948-.566-4.331l-3.806 1.016A12.8 12.8 0 0 1 27.803 15zm-9.679 15.183c5.713-2.661 9.68-8.457 9.68-15.183h-3.94c0 5.138-3.027 9.573-7.403 11.612zm-2.139-6.32c0 1.382-.203 2.714-.58 3.969l3.774 1.132a17.7 17.7 0 0 0 .746-5.1zM15 2.198c5.138 0 9.573 3.027 11.612 7.403l3.571-1.663C27.522 2.224 21.726-1.743 15-1.743zm-3.315.433A12.8 12.8 0 0 1 15 2.197v-3.94c-1.495 0-2.948.197-4.331.567zm.36 3.506c0-1.65.337-3.216.943-4.636L9.365-.047a15.7 15.7 0 0 0-1.26 6.183zm.004.285q-.004-.143-.004-.285h-3.94a16 16 0 0 0 .005.377zm2.95-3.24c-2.147 0-4.166.575-5.905 1.58l1.97 3.411A7.83 7.83 0 0 1 15 7.122zm8.55 3.66A11.8 11.8 0 0 0 15 3.181v3.94a7.85 7.85 0 0 1 5.7 2.44zm.314-.705q-.988 0-1.953.107l.43 3.916q.75-.083 1.523-.083zm5.1.746a17.7 17.7 0 0 0-5.1-.746v3.94c1.382 0 2.714.203 3.969.579z"/></g></g><defs><clipPath id="a"><path fill="#fff" d="M0 0h30v30H0z"/></clipPath></defs></svg>
